X:73
T:Happy Birthday
M:3/4
L:1/4
K:D
|"D"A/2A/2|"D"B A d|"A"c2 A/2A/2|B A e|"D"d2 A/2A/2
w:Hap-py Birth-day to you. Hap-py Birth-day to you. Hap-py
|a f d|"G"c B2-|B2 g/2g/2|"D"f d "A"e|"D"d2|
w:Birth-day to (person name)._ Hap-py Birth-day to you.
